X: 36366
T: Seán McGrattan's
R: reel
M: 4/4
K: Dmajor
G|:FAAF A2FA|B/c/d eg feeg|f2ed ~B2dB|ABDE FEED|
FAAF A2FA|B/c/d eg feef|f2ed ~B2dB|AFEG FDD2:|
|:AddA B2af|dffe fB~B2|ABde fddB|ABde feed|
Adda b2af|dffe fB~B2|A2dB ~A2FA|GFEG FDD2:|

